X:1
T: Miss Douglas
C:
R:Strathspey
Q: 128
K:G
M:4/4
L:1/16
|:d4 B3c dG3 B3G|Ec3 A3G FD3 B3c|d4 B3g dG3 B3G|EA3 D3F G4 G4|
d4 B3c dG3 B3G|Ec3 A3G FD3 B3c|d4 B3g dG3 B3G|EA3 D3F G4 G4|
dg3 g3f ea3 a3g|f3d e3f g3a ((3g2B2c2) |dg3 g3f ea3 a3g|f3d e3f ggg2 g3a|
b3g a3f g3e f3d|e3c d3B A3B ce3|d4 B3g dG3 B3G|E3c BAGF G4 G4:|
